src/assets/dark/open.svg

<svg height="16" viewBox="0 0 16 16" width="16" xmlns="http://www.w3.org/2000/svg"><path d="m2.5 1.5-.5.5v3.5h1v-3h10v10h-3v1h3.5l.5-.5v-11l-.5-.5zm-.5 7v1h4.3l-4.9 4.9.7.7 4.9-4.9v4.3h1v-5.5l-.5-.5z" fill="#c5c5c5" fill-rule="evenodd"/></svg>

<?xml version="1.0" encoding="UTF-8"?>
<svg width="16px" height="16px" viewBox="0 0 16 16" version="1.1" xmlns="http://www.w3.org/2000/svg" xmlns:xlink="http://www.w3.org/1999/xlink">
    <title>Artboard</title>
    <g stroke="none" stroke-width="1" fill="none" fill-rule="evenodd">
        <path d="M2.5,1.5 L2,2 L2,5.5 L3,5.5 L3,2.5 L13,2.5 L13,12.5 L10,12.5 L10,13.5 L13.5,13.5 L14,13 L14,2 L13.5,1.5 L2.5,1.5 Z M2,8.5 L2,9.5 L6.3,9.5 L1.4,14.4 L2.1,15.1 L7,10.2 L7,14.5 L8,14.5 L8,9 L7.5,8.5 L2,8.5 Z" fill="#C5C5C5"></path>
    </g>
</svg>
